X:1
T:Title
%%score 1 2
L:1/8
Q:1/4=105
M:4/4
K:Db
V:1 treble nm="Grand Piano, Soprano"
V:2 bass nm="Choir Pad, Ring Out, Ye Throbbing Stars"
V:1
 [FA]2 [_F=G][=FA] [_GB]2 [FA]2 | F2 [FA]2 [Fd]4 | [Fd]2 [Fc][Fd] [Fe]2 [Fd]2 | %3
w: By~Mrs.~J.~H.~Barbour * * * *|||
 [Dc]2 [DB]2 [DE]3 [DF] | [CG]2 [CG]2 [Gc]2 [GB]2 | [FA]4 [EG]2 [DF]2 | [CE]2 [Fd]2 [Ec]2 [DB]2 | %7
w: ||||
 [Dc]4 [CA]2 z [FA] | [_F=G]2 [=FA]2 [_GB]2 [FA]2 | F2 [FA]2 [Fd]2 [Fd]2 | %10
w: |||
 [Fc]2 [Fd]2 [Fe]2 [Fd]2 | [Dc]2 [DB]2 [DE]3 [DF] | [CG]2 [CG]2 [Gc]2 [GB]2 | [FA]4 [EG]2 [DF]2 | %14
w: ||||
 [CE]2 [Ed]2 [Ec]2 [DB]2 |[M:6/4] [DB]4 [CA]2 A2 [Ge]4 | [G=d]2 [Ge]4 [Gc]2 [F_d]4 | %17
w: |||
 [GB]2 [FA]4 [FA]2 [GB]2 [GB]2 | [Gc]2 [Gd]4 [GB]2 [FA]2 F2 | [FA]4 A2 [GB]4 [Gc]2 | %20
w: |||
 [Ad]4 A2 [Af]6 | [Ge]6 [Fd]6- | [Fd]6 z6 |] %23
w: |||
V:2
 [D,D]2 [D,D][D,D] [D,D]2 [D,D]2 | [D,D]2 [D,D]2 [D,A,]4 | [D,A,]2 [D,A,][D,A,] [D,A,]2 [D,A,]2 | %3
 [G,B,]2 [G,B,]2 [G,B,]3 [G,B,] | [A,,A,]2 [A,,A,]2 [A,,A,]2 [A,,A,]2 | [D,A,]4 [D,A,]2 [D,A,]2 | %6
 E,2 E,2 [E,F,]2 [F,=G,]2 | [F,=G,]4 [A,,A,]2 z [D,A,] | [D,D]2 [D,D]2 [D,D]2 [D,D]2 | %9
 [D,D]2 [D,D]2 [D,A,]2 [D,A,]2 | [D,A,]2 [D,A,]2 [D,A,]2 [D,A,]2 | [G,B,]2 [G,B,]2 [G,B,]3 [G,B,] | %12
 [A,,A,]2 [A,,A,]2 [A,,A,]2 [A,,A,]2 | [D,A,]4 [D,A,]2 [D,A,]2 | E,2 E,2 [E,F,]2 [E,=G,]2 | %15
[M:6/4] [E,=G,]4 [A,,A,]2 A,2 [A,C]4 | [A,C]2 [A,C]4 [A,E]2 [D,D]4 | %17
 [D,D]2 [D,D]4 [D,D]2 [G,D]2 [G,D]2 | [G,=A,]2 [G,B,]4 [G,D]2 [D,D]2 [D,_A,]2 | %19
 [D,D]4 [F,D]2 [G,D]4 [G,D]2 | [G,D]4 A,2 [A,D]6 | [A,C]6 [D,A,]6- | [D,A,]4 z2 z6 |] %23

